src/asset/math.svg

<?xml version="1.0" encoding="utf-8"?><!-- Uploaded to: SVG Repo, www.svgrepo.com, Generator: SVG Repo Mixer Tools -->
<svg width="800px" height="800px" viewBox="0 0 24 24" fill="none" xmlns="http://www.w3.org/2000/svg">
<path d="M12.4817 3.82717C11.3693 3.00322 9.78596 3.7358 9.69388 5.11699L9.53501 7.50001H12.25C12.6642 7.50001 13 7.8358 13 8.25001C13 8.66423 12.6642 9.00001 12.25 9.00001H9.43501L8.83462 18.0059C8.6556 20.6912 5.47707 22.0078 3.45168 20.2355L3.25613 20.0644C2.9444 19.7917 2.91282 19.3179 3.18558 19.0061C3.45834 18.6944 3.93216 18.6628 4.24389 18.9356L4.43943 19.1067C5.53003 20.061 7.24154 19.352 7.33794 17.9061L7.93168 9.00001H5.75001C5.3358 9.00001 5.00001 8.66423 5.00001 8.25001C5.00001 7.8358 5.3358 7.50001 5.75001 7.50001H8.03168L8.1972 5.01721C8.3682 2.45214 11.3087 1.09164 13.3745 2.62184L13.7464 2.89734C14.0793 3.1439 14.1492 3.61359 13.9027 3.94643C13.6561 4.27928 13.1864 4.34923 12.8536 4.10268L12.4817 3.82717Z" fill="#212121"/>
<path d="M13.7121 12.7634C13.4879 12.3373 12.9259 12.2299 12.5604 12.5432L12.2381 12.8194C11.9236 13.089 11.4501 13.0526 11.1806 12.7381C10.911 12.4236 10.9474 11.9501 11.2619 11.6806L11.5842 11.4043C12.6809 10.4643 14.3668 10.7865 15.0395 12.0647L16.0171 13.9222L18.7197 11.2197C19.0126 10.9268 19.4874 10.9268 19.7803 11.2197C20.0732 11.5126 20.0732 11.9874 19.7803 12.2803L16.7486 15.312L18.2879 18.2366C18.5121 18.6627 19.0741 18.7701 19.4397 18.4568L19.7619 18.1806C20.0764 17.911 20.5499 17.9474 20.8195 18.2619C21.089 18.5764 21.0526 19.0499 20.7381 19.3194L20.4159 19.5957C19.3191 20.5357 17.6333 20.2135 16.9605 18.9353L15.6381 16.4226L12.2803 19.7803C11.9875 20.0732 11.5126 20.0732 11.2197 19.7803C10.9268 19.4874 10.9268 19.0126 11.2197 18.7197L14.9066 15.0328L13.7121 12.7634Z" fill="#212121"/>
</svg>

<svg xmlns="http://www.w3.org/2000/svg" width="18" height="19.066" viewBox="0 0 18 19.066">
  <g id="math" transform="translate(-3 -1.979)">
    <path id="Path_19" data-name="Path 19" d="M12.482,3.827a1.75,1.75,0,0,0-2.788,1.29L9.535,7.5H12.25a.75.75,0,1,1,0,1.5H9.435l-.6,9.006a3.25,3.25,0,0,1-5.383,2.23l-.2-.171a.75.75,0,1,1,.988-1.129l.2.171a1.75,1.75,0,0,0,2.9-1.2L7.932,9H5.75a.75.75,0,1,1,0-1.5H8.032L8.2,5.017a3.25,3.25,0,0,1,5.177-2.4l.372.276A.75.75,0,1,1,12.854,4.1Z" fill="#fff"/>
    <path id="Path_20" data-name="Path 20" d="M13.712,12.763a.75.75,0,0,0-1.152-.22l-.322.276a.75.75,0,0,1-.976-1.139l.322-.276a2.25,2.25,0,0,1,3.455.66l.978,1.858,2.7-2.7A.75.75,0,0,1,19.78,12.28l-3.032,3.032,1.539,2.925a.75.75,0,0,0,1.152.22l.322-.276a.75.75,0,1,1,.976,1.139l-.322.276a2.25,2.25,0,0,1-3.455-.66l-1.322-2.513L12.28,19.78A.75.75,0,0,1,11.22,18.72l3.687-3.687Z" fill="#fff"/>
  </g>
</svg>
